X:15024
T:Orlando's Return
R:March
C:Trad.
O:England
Z:Paul Hardy's Session Tunebook 2022 (see www.paulhardy.net). Creative Commons cc by-nc-sa licenced.
M:4/4
L:1/8
Q:1/4=160
K:G
D2|"G"GFGA G2 A2|"Em"BABc B2 c2|"G"d2 G2 "C"c2 B2|"D"AGFE D2 D2|
"G"GFGA G2 A2|"Em"BABc B2 c2|"G"d2 G2 "D7"BAGF|"G"G2 GF G2:|
|:Bc|"G"d3 d d2 B2|"C"c2 e2 "Am"A2 c2|"G"B2 G2 "C"c2 B2|"D"AGFE D2 d2|
"G"GFGA G2 A2|"Em"BABc B2 c2|"G"d2 G2 "D7"BAGF|"G"G4 G2:|

